icons/terminal-box-line.svg

<svg viewBox="0 0 24 24" fill="currentColor" xmlns="http://www.w3.org/2000/svg"><path d="M3 3H21C21.5523 3 22 3.44772 22 4V20C22 20.5523 21.5523 21 21 21H3C2.44772 21 2 20.5523 2 20V4C2 3.44772 2.44772 3 3 3ZM4 5V19H20V5H4ZM12 15H18V17H12V15ZM8.66685 12L5.83842 9.17157L7.25264 7.75736L11.4953 12L7.25264 16.2426L5.83842 14.8284L8.66685 12Z"/></svg>

<svg xmlns="http://www.w3.org/2000/svg" viewBox="0 0 24 24">
    <g>
        <path fill="none" d="M0 0h24v24H0z"/>
        <path d="M3 3h18a1 1 0 0 1 1 1v16a1 1 0 0 1-1 1H3a1 1 0 0 1-1-1V4a1 1 0 0 1 1-1zm1 2v14h16V5H4zm8 10h6v2h-6v-2zm-3.333-3L5.838 9.172l1.415-1.415L11.495 12l-4.242 4.243-1.415-1.415L8.667 12z"/>
    </g>
</svg>
